Adwaita++/actions/22/document-save-all.svg

<svg fill="none" height="22" viewBox="0 0 22 22" width="22" xmlns="http://www.w3.org/2000/svg">
  <path d="m9.99241 3c-.55288 0-1.00084.44864-1 1.00152l.00824 5.40682h-2.3421l3.34028 5.19216v-2.1215c0-1.0794.90127-1.9692 1.87527-1.9692h2.7835l.7169-1.10146h-2.3753l-.0082-5.40986c-.0009-.55169-.4483-.99848-1-.99848zm1.88169 8.5778c-.4925 0-.8751.3799-.8751.9012v5.5739c0 .5212.3826.9012.8751.9012h6.2508c.492 0 .8751-.38.8751-.9012v-5.5739c0-.5213-.3831-.9012-.8751-.9012zm1.1271 1.0139h4.0005v5.3402h-1.0001v-2.1361h-2.0003v2.1361h-1.0001zm1.0001 1.068v1.0681h2.0003v-1.0681zm-10.0013 3.2376v2.1027h6.2586c-.1564-.2829-.2559-.6029-.2559-.9471v-1.1556z" fill="#444"/>
</svg>

<svg xmlns="http://www.w3.org/2000/svg" fill="none" width="22" height="22" viewBox="0 0 22 22">
 <path fill="#444" d="M9.99241 3C9.43953 3 8.99157 3.44864 8.99241 4.00152L9.00065 9.40834H6.65855L9.99883 14.6005V12.479C9.99883 11.3996 10.9001 10.5098 11.8741 10.5098H14.6576L15.3745 9.40834H12.9992L12.991 3.99848C12.9901 3.44679 12.5427 3 11.991 3H9.99241ZM11.8741 11.5778C11.3816 11.5778 10.999 11.9577 10.999 12.479V18.0529C10.999 18.5741 11.3816 18.9541 11.8741 18.9541H18.1249C18.6169 18.9541 19 18.5741 19 18.0529V12.479C19 11.9577 18.6169 11.5778 18.1249 11.5778H11.8741ZM13.0012 12.5917H17.0017V17.9319H16.0016V15.7958H14.0013V17.9319H13.0012V12.5917ZM14.0013 13.6597V14.7278H16.0016V13.6597H14.0013ZM4 16.8973V19H10.2586C10.1022 18.7171 10.0027 18.3971 10.0027 18.0529V16.8973H4Z"/>
</svg>
